linear-to-srgb.cube
TITLE "Linear to sRGB Transfer"
LUT_1D_SIZE 4096
0.0000000 0.0000000 0.0000000
0.0031551 0.0031551 0.0031551
0.0063101 0.0063101 0.0063101
0.0094652 0.0094652 0.0094652
0.0126203 0.0126203 0.0126203
0.0157753 0.0157753 0.0157753
0.0189304 0.0189304 0.0189304
0.0220855 0.0220855 0.0220855
0.0252405 0.0252405 0.0252405
0.0283956 0.0283956 0.0283956
0.0315507 0.0315507 0.0315507
0.0347057 0.0347057 0.0347057
0.0378608 0.0378608 0.0378608
0.0410041 0.0410041 0.0410041
0.0440148 0.0440148 0.0440148
0.0469025 0.0469025 0.0469025
0.0496799 0.0496799 0.0496799
0.0523578 0.0523578 0.0523578
0.0549454 0.0549454 0.0549454
0.0574503 0.0574503 0.0574503
0.0598795 0.0598795 0.0598795
0.0622388 0.0622388 0.0622388
0.0645334 0.0645334 0.0645334
0.0667680 0.0667680 0.0667680
0.0689466 0.0689466 0.0689466
0.0710729 0.0710729 0.0710729
0.0731501 0.0731501 0.0731501
0.0751812 0.0751812 0.0751812
0.0771689 0.0771689 0.0771689
0.0791156 0.0791156 0.0791156
0.0810235 0.0810235 0.0810235
0.0828946 0.0828946 0.0828946
0.0847309 0.0847309 0.0847309
0.0865340 0.0865340 0.0865340
0.0883055 0.0883055 0.0883055
0.0900469 0.0900469 0.0900469
0.0917594 0.0917594 0.0917594
0.0934445 0.0934445 0.0934445
0.0951032 0.0951032 0.0951032
0.0967366 0.0967366 0.0967366
0.0983457 0.0983457 0.0983457
0.0999316 0.0999316 0.0999316
0.1014950 0.1014950 0.1014950
0.1030369 0.1030369 0.1030369
0.1045580 0.1045580 0.1045580
0.1060591 0.1060591 0.1060591
0.1075408 0.1075408 0.1075408
0.1090039 0.1090039 0.1090039
0.1104489 0.1104489 0.1104489
0.1118764 0.1118764 0.1118764
0.1132871 0.1132871 0.1132871
0.1146814 0.1146814 0.1146814
0.1160598 0.1160598 0.1160598
0.1174229 0.1174229 0.1174229
0.1187710 0.1187710 0.1187710
0.1201047 0.1201047 0.1201047
0.1214243 0.1214243 0.1214243
0.1227302 0.1227302 0.1227302
0.1240228 0.1240228 0.1240228
0.1253025 0.1253025 0.1253025
0.1265696 0.1265696 0.1265696
0.1278244 0.1278244 0.1278244
0.1290673 0.1290673 0.1290673
0.1302985 0.1302985 0.1302985
0.1315184 0.1315184 0.1315184
0.1327272 0.1327272 0.1327272
0.1339252 0.1339252 0.1339252
0.1351127 0.1351127 0.1351127
0.1362899 0.1362899 0.1362899
0.1374570 0.1374570 0.1374570
0.1386143 0.1386143 0.1386143
0.1397620 0.1397620 0.1397620
0.1409003 0.1409003 0.1409003
0.1420295 0.1420295 0.1420295
0.1431496 0.1431496 0.1431496
0.1442609 0.1442609 0.1442609
0.1453637 0.1453637 0.1453637
0.1464580 0.1464580 0.1464580
0.1475440 0.1475440 0.1475440
0.1486220 0.1486220 0.1486220
0.1496920 0.1496920 0.1496920
0.1507542 0.1507542 0.1507542
0.1518088 0.1518088 0.1518088
0.1528560 0.1528560 0.1528560
0.1538958 0.1538958 0.1538958
0.1549284 0.1549284 0.1549284
0.1559540 0.1559540 0.1559540
0.1569726 0.1569726 0.1569726
0.1579844 0.1579844 0.1579844
0.1589895 0.1589895 0.1589895
0.1599881 0.1599881 0.1599881
0.1609802 0.1609802 0.1609802
0.1619660 0.1619660 0.1619660
0.1629455 0.1629455 0.1629455
0.1639189 0.1639189 0.1639189
0.1648863 0.1648863 0.1648863
0.1658478 0.1658478 0.1658478
0.1668034 0.1668034 0.1668034
0.1677533 0.1677533 0.1677533
0.1686976 0.1686976 0.1686976
0.1696363 0.1696363 0.1696363
0.1705696 0.1705696 0.1705696
0.1714975 0.1714975 0.1714975
0.1724201 0.1724201 0.1724201
0.1733375 0.1733375 0.1733375
0.1742498 0.1742498 0.1742498
0.1751570 0.1751570 0.1751570
0.1760592 0.1760592 0.1760592
0.1769565 0.1769565 0.1769565
0.1778490 0.1778490 0.1778490
0.1787367 0.1787367 0.1787367
0.1796198 0.1796198 0.1796198
0.1804982 0.1804982 0.1804982
0.1813720 0.1813720 0.1813720
0.1822413 0.1822413 0.1822413
0.1831062 0.1831062 0.1831062
0.1839668 0.1839668 0.1839668
0.1848230 0.1848230 0.1848230
0.1856749 0.1856749 0.1856749
0.1865227 0.1865227 0.1865227
0.1873663 0.1873663 0.1873663
0.1882058 0.1882058 0.1882058
0.1890413 0.1890413 0.1890413
0.1898728 0.1898728 0.1898728
0.1907003 0.1907003 0.1907003
0.1915240 0.1915240 0.1915240
0.1923438 0.1923438 0.1923438
0.1931599 0.1931599 0.1931599
0.1939722 0.1939722 0.1939722
0.1947808 0.1947808 0.1947808
0.1955858 0.1955858 0.1955858
0.1963871 0.1963871 0.1963871
0.1971849 0.1971849 0.1971849
0.1979792 0.1979792 0.1979792
0.1987700 0.1987700 0.1987700
0.1995574 0.1995574 0.1995574
0.2003414 0.2003414 0.2003414
0.2011220 0.2011220 0.2011220
0.2018993 0.2018993 0.2018993
0.2026733 0.2026733 0.2026733
0.2034441 0.2034441 0.2034441
0.2042117 0.2042117 0.2042117
0.2049761 0.2049761 0.2049761
0.2057374 0.2057374 0.2057374
0.2064956 0.2064956 0.2064956
0.2072507 0.2072507 0.2072507
0.2080028 0.2080028 0.2080028
0.2087519 0.2087519 0.2087519
0.2094980 0.2094980 0.2094980
0.2102412 0.2102412 0.2102412
0.2109815 0.2109815 0.2109815
0.2117189 0.2117189 0.2117189
0.2124534 0.2124534 0.2124534
0.2131852 0.2131852 0.2131852
0.2139141 0.2139141 0.2139141
0.2146403 0.2146403 0.2146403
0.2153638 0.2153638 0.2153638
0.2160846 0.2160846 0.2160846
0.2168027 0.2168027 0.2168027
0.2175182 0.2175182 0.2175182
0.2182310 0.2182310 0.2182310
0.2189413 0.2189413 0.2189413
0.2196489 0.2196489 0.2196489
0.2203541 0.2203541 0.2203541
0.2210567 0.2210567 0.2210567
0.2217568 0.2217568 0.2217568
0.2224545 0.2224545 0.2224545
0.2231497 0.2231497 0.2231497
0.2238424 0.2238424 0.2238424
0.2245328 0.2245328 0.2245328
0.2252208 0.2252208 0.2252208
0.2259065 0.2259065 0.2259065
0.2265898 0.2265898 0.2265898
0.2272707 0.2272707 0.2272707
0.2279494 0.2279494 0.2279494
0.2286259 0.2286259 0.2286259
0.2293001 0.2293001 0.2293001
0.2299720 0.2299720 0.2299720
0.2306417 0.2306417 0.2306417
0.2313093 0.2313093 0.2313093
0.2319747 0.2319747 0.2319747
0.2326379 0.2326379 0.2326379
0.2332990 0.2332990 0.2332990
0.2339579 0.2339579 0.2339579
0.2346148 0.2346148 0.2346148
0.2352696 0.2352696 0.2352696
0.2359223 0.2359223 0.2359223
0.2365730 0.2365730 0.2365730
0.2372217 0.2372217 0.2372217
0.2378683 0.2378683 0.2378683
0.2385130 0.2385130 0.2385130
0.2391557 0.2391557 0.2391557
0.2397964 0.2397964 0.2397964
0.2404352 0.2404352 0.2404352
0.2410720 0.2410720 0.2410720
0.2417070 0.2417070 0.2417070
0.2423400 0.2423400 0.2423400
0.2429712 0.2429712 0.2429712
0.2436005 0.2436005 0.2436005
0.2442279 0.2442279 0.2442279
0.2448535 0.2448535 0.2448535
0.2454773 0.2454773 0.2454773
0.2460993 0.2460993 0.2460993
0.2467195 0.2467195 0.2467195
0.2473379 0.2473379 0.2473379
0.2479545 0.2479545 0.2479545
0.2485694 0.2485694 0.2485694
0.2491826 0.2491826 0.2491826
0.2497940 0.2497940 0.2497940
0.2504037 0.2504037 0.2504037
0.2510117 0.2510117 0.2510117
0.2516180 0.2516180 0.2516180
0.2522227 0.2522227 0.2522227
0.2528257 0.2528257 0.2528257
0.2534270 0.2534270 0.2534270
0.2540267 0.2540267 0.2540267
0.2546248 0.2546248 0.2546248
0.2552213 0.2552213 0.2552213
0.2558161 0.2558161 0.2558161
0.2564094 0.2564094 0.2564094
0.2570011 0.2570011 0.2570011
0.2575912 0.2575912 0.2575912
0.2581798 0.2581798 0.2581798
0.2587668 0.2587668 0.2587668
0.2593523 0.2593523 0.2593523
0.2599363 0.2599363 0.2599363
0.2605188 0.2605188 0.2605188
0.2610997 0.2610997 0.2610997
0.2616792 0.2616792 0.2616792
0.2622572 0.2622572 0.2622572
0.2628337 0.2628337 0.2628337
0.2634087 0.2634087 0.2634087
0.2639824 0.2639824 0.2639824
0.2645545 0.2645545 0.2645545
0.2651253 0.2651253 0.2651253
0.2656946 0.2656946 0.2656946
0.2662625 0.2662625 0.2662625
0.2668290 0.2668290 0.2668290
0.2673941 0.2673941 0.2673941
0.2679578 0.2679578 0.2679578
0.2685202 0.2685202 0.2685202
0.2690811 0.2690811 0.2690811
0.2696408 0.2696408 0.2696408
0.2701991 0.2701991 0.2701991
0.2707560 0.2707560 0.2707560
0.2713116 0.2713116 0.2713116
0.2718659 0.2718659 0.2718659
0.2724189 0.2724189 0.2724189
0.2729706 0.2729706 0.2729706
0.2735209 0.2735209 0.2735209
0.2740700 0.2740700 0.2740700
0.2746178 0.2746178 0.2746178
0.2751644 0.2751644 0.2751644
0.2757097 0.2757097 0.2757097
0.2762537 0.2762537 0.2762537
0.2767965 0.2767965 0.2767965
0.2773380 0.2773380 0.2773380
0.2778783 0.2778783 0.2778783
0.2784174 0.2784174 0.2784174
0.2789552 0.2789552 0.2789552
0.2794919 0.2794919 0.2794919
0.2800273 0.2800273 0.2800273
0.2805616 0.2805616 0.2805616
0.2810946 0.2810946 0.2810946
0.2816265 0.2816265 0.2816265
0.2821572 0.2821572 0.2821572
0.2826867 0.2826867 0.2826867
0.2832151 0.2832151 0.2832151
0.2837424 0.2837424 0.2837424
0.2842684 0.2842684 0.2842684
0.2847934 0.2847934 0.2847934
0.2853172 0.2853172 0.2853172
0.2858399 0.2858399 0.2858399
0.2863614 0.2863614 0.2863614
0.2868819 0.2868819 0.2868819
0.2874012 0.2874012 0.2874012
0.2879194 0.2879194 0.2879194
0.2884366 0.2884366 0.2884366
0.2889527 0.2889527 0.2889527
0.2894676 0.2894676 0.2894676
0.2899815 0.2899815 0.2899815
0.2904944 0.2904944 0.2904944
0.2910061 0.2910061 0.2910061
0.2915168 0.2915168 0.2915168
0.2920265 0.2920265 0.2920265
0.2925351 0.2925351 0.2925351
0.2930427 0.2930427 0.2930427
0.2935492 0.2935492 0.2935492
0.2940547 0.2940547 0.2940547
0.2945592 0.2945592 0.2945592
0.2950627 0.2950627 0.2950627
0.2955652 0.2955652 0.2955652
0.2960666 0.2960666 0.2960666
0.2965671 0.2965671 0.2965671
0.2970665 0.2970665 0.2970665
0.2975650 0.2975650 0.2975650
0.2980625 0.2980625 0.2980625
0.2985590 0.2985590 0.2985590
0.2990545 0.2990545 0.2990545
0.2995491 0.2995491 0.2995491
0.3000426 0.3000426 0.3000426
0.3005353 0.3005353 0.3005353
0.3010270 0.3010270 0.3010270
0.3015177 0.3015177 0.3015177
0.3020075 0.3020075 0.3020075
0.3024963 0.3024963 0.3024963
0.3029843 0.3029843 0.3029843
0.3034712 0.3034712 0.3034712
0.3039573 0.3039573 0.3039573
0.3044424 0.3044424 0.3044424
0.3049267 0.3049267 0.3049267
0.3054100 0.3054100 0.3054100
0.3058924 0.3058924 0.3058924
0.3063739 0.3063739 0.3063739
0.3068545 0.3068545 0.3068545
0.3073343 0.3073343 0.3073343
0.3078131 0.3078131 0.3078131
0.3082910 0.3082910 0.3082910
0.3087681 0.3087681 0.3087681
0.3092443 0.3092443 0.3092443
0.3097196 0.3097196 0.3097196
0.3101941 0.3101941 0.3101941
0.3106677 0.3106677 0.3106677
0.3111405 0.3111405 0.3111405
0.3116123 0.3116123 0.3116123
0.3120834 0.3120834 0.3120834
0.3125536 0.3125536 0.3125536
0.3130229 0.3130229 0.3130229
0.3134915 0.3134915 0.3134915
0.3139592 0.3139592 0.3139592
0.3144260 0.3144260 0.3144260
0.3148920 0.3148920 0.3148920
0.3153573 0.3153573 0.3153573
0.3158217 0.3158217 0.3158217
0.3162852 0.3162852 0.3162852
0.3167480 0.3167480 0.3167480
0.3172100 0.3172100 0.3172100
0.3176712 0.3176712 0.3176712
0.3181315 0.3181315 0.3181315
0.3185911 0.3185911 0.3185911
0.3190499 0.3190499 0.3190499
0.3195079 0.3195079 0.3195079
0.3199651 0.3199651 0.3199651
0.3204216 0.3204216 0.3204216
0.3208772 0.3208772 0.3208772
0.3213321 0.3213321 0.3213321
0.3217862 0.3217862 0.3217862
0.3222396 0.3222396 0.3222396
0.3226922 0.3226922 0.3226922
0.3231440 0.3231440 0.3231440
0.3235951 0.3235951 0.3235951
0.3240455 0.3240455 0.3240455
0.3244950 0.3244950 0.3244950
0.3249439 0.3249439 0.3249439
0.3253920 0.3253920 0.3253920
0.3258393 0.3258393 0.3258393
0.3262860 0.3262860 0.3262860
0.3267319 0.3267319 0.3267319
0.3271770 0.3271770 0.3271770
0.3276215 0.3276215 0.3276215
0.3280652 0.3280652 0.3280652
0.3285082 0.3285082 0.3285082
0.3289505 0.3289505 0.3289505
0.3293921 0.3293921 0.3293921
0.3298329 0.3298329 0.3298329
0.3302731 0.3302731 0.3302731
0.3307126 0.3307126 0.3307126
0.3311513 0.3311513 0.3311513
0.3315894 0.3315894 0.3315894
0.3320268 0.3320268 0.3320268
0.3324634 0.3324634 0.3324634
0.3328994 0.3328994 0.3328994
0.3333347 0.3333347 0.3333347
0.3337693 0.3337693 0.3337693
0.3342033 0.3342033 0.3342033
0.3346366 0.3346366 0.3346366
0.3350691 0.3350691 0.3350691
0.3355011 0.3355011 0.3355011
0.3359323 0.3359323 0.3359323
0.3363629 0.3363629 0.3363629
0.3367928 0.3367928 0.3367928
0.3372221 0.3372221 0.3372221
0.3376507 0.3376507 0.3376507
0.3380787 0.3380787 0.3380787
0.3385060 0.3385060 0.3385060
0.3389326 0.3389326 0.3389326
0.3393587 0.3393587 0.3393587
0.3397840 0.3397840 0.3397840
0.3402087 0.3402087 0.3402087
0.3406328 0.3406328 0.3406328
0.3410563 0.3410563 0.3410563
0.3414791 0.3414791 0.3414791
0.3419013 0.3419013 0.3419013
0.3423229 0.3423229 0.3423229
0.3427438 0.3427438 0.3427438
0.3431641 0.3431641 0.3431641
0.3435838 0.3435838 0.3435838
0.3440029 0.3440029 0.3440029
0.3444214 0.3444214 0.3444214
0.3448392 0.3448392 0.3448392
0.3452564 0.3452564 0.3452564
0.3456731 0.3456731 0.3456731
0.3460891 0.3460891 0.3460891
0.3465045 0.3465045 0.3465045
0.3469193 0.3469193 0.3469193
0.3473336 0.3473336 0.3473336
0.3477472 0.3477472 0.3477472
0.3481602 0.3481602 0.3481602
0.3485727 0.3485727 0.3485727
0.3489845 0.3489845 0.3489845
0.3493958 0.3493958 0.3493958
0.3498065 0.3498065 0.3498065
0.3502165 0.3502165 0.3502165
0.3506261 0.3506261 0.3506261
0.3510350 0.3510350 0.3510350
0.3514434 0.3514434 0.3514434
0.3518512 0.3518512 0.3518512
0.3522584 0.3522584 0.3522584
0.3526650 0.3526650 0.3526650
0.3530711 0.3530711 0.3530711
0.3534766 0.3534766 0.3534766
0.3538816 0.3538816 0.3538816
0.3542860 0.3542860 0.3542860
0.3546898 0.3546898 0.3546898
0.3550931 0.3550931 0.3550931
0.3554958 0.3554958 0.3554958
0.3558980 0.3558980 0.3558980
0.3562996 0.3562996 0.3562996
0.3567007 0.3567007 0.3567007
0.3571012 0.3571012 0.3571012
0.3575012 0.3575012 0.3575012
0.3579006 0.3579006 0.3579006
0.3582995 0.3582995 0.3582995
0.3586979 0.3586979 0.3586979
0.3590957 0.3590957 0.3590957
0.3594930 0.3594930 0.3594930
0.3598897 0.3598897 0.3598897
0.3602860 0.3602860 0.3602860
0.3606817 0.3606817 0.3606817
0.3610768 0.3610768 0.3610768
0.3614715 0.3614715 0.3614715
0.3618656 0.3618656 0.3618656
0.3622592 0.3622592 0.3622592
0.3626523 0.3626523 0.3626523
0.3630449 0.3630449 0.3630449
0.3634369 0.3634369 0.3634369
0.3638285 0.3638285 0.3638285
0.3642195 0.3642195 0.3642195
0.3646100 0.3646100 0.3646100
0.3650000 0.3650000 0.3650000
0.3653895 0.3653895 0.3653895
0.3657785 0.3657785 0.3657785
0.3661670 0.3661670 0.3661670
0.3665550 0.3665550 0.3665550
0.3669425 0.3669425 0.3669425
0.3673295 0.3673295 0.3673295
0.3677160 0.3677160 0.3677160
0.3681020 0.3681020 0.3681020
0.3684875 0.3684875 0.3684875
0.3688725 0.3688725 0.3688725
0.3692571 0.3692571 0.3692571
0.3696411 0.3696411 0.3696411
0.3700247 0.3700247 0.3700247
0.3704078 0.3704078 0.3704078
0.3707904 0.3707904 0.3707904
0.3711725 0.3711725 0.3711725
0.3715541 0.3715541 0.3715541
0.3719353 0.3719353 0.3719353
0.3723160 0.3723160 0.3723160
0.3726962 0.3726962 0.3726962
0.3730759 0.3730759 0.3730759
0.3734552 0.3734552 0.3734552
0.3738340 0.3738340 0.3738340
0.3742123 0.3742123 0.3742123
0.3745901 0.3745901 0.3745901
0.3749675 0.3749675 0.3749675
0.3753445 0.3753445 0.3753445
0.3757209 0.3757209 0.3757209
0.3760970 0.3760970 0.3760970
0.3764725 0.3764725 0.3764725
0.3768476 0.3768476 0.3768476
0.3772222 0.3772222 0.3772222
0.3775964 0.3775964 0.3775964
0.3779702 0.3779702 0.3779702
0.3783434 0.3783434 0.3783434
0.3787163 0.3787163 0.3787163
0.3790887 0.3790887 0.3790887
0.3794606 0.3794606 0.3794606
0.3798321 0.3798321 0.3798321
0.3802031 0.3802031 0.3802031
0.3805737 0.3805737 0.3805737
0.3809439 0.3809439 0.3809439
0.3813136 0.3813136 0.3813136
0.3816829 0.3816829 0.3816829
0.3820518 0.3820518 0.3820518
0.3824202 0.3824202 0.3824202
0.3827882 0.3827882 0.3827882
0.3831557 0.3831557 0.3831557
0.3835228 0.3835228 0.3835228
0.3838895 0.3838895 0.3838895
0.3842558 0.3842558 0.3842558
0.3846216 0.3846216 0.3846216
0.3849870 0.3849870 0.3849870
0.3853520 0.3853520 0.3853520
0.3857166 0.3857166 0.3857166
0.3860807 0.3860807 0.3860807
0.3864444 0.3864444 0.3864444
0.3868077 0.3868077 0.3868077
0.3871706 0.3871706 0.3871706
0.3875331 0.3875331 0.3875331
0.3878951 0.3878951 0.3878951
0.3882568 0.3882568 0.3882568
0.3886180 0.3886180 0.3886180
0.3889788 0.3889788 0.3889788
0.3893392 0.3893392 0.3893392
0.3896992 0.3896992 0.3896992
0.3900588 0.3900588 0.3900588
0.3904180 0.3904180 0.3904180
0.3907767 0.3907767 0.3907767
0.3911351 0.3911351 0.3911351
0.3914931 0.3914931 0.3914931
0.3918506 0.3918506 0.3918506
0.3922078 0.3922078 0.3922078
0.3925646 0.3925646 0.3925646
0.3929209 0.3929209 0.3929209
0.3932769 0.3932769 0.3932769
0.3936325 0.3936325 0.3936325
0.3939877 0.3939877 0.3939877
0.3943425 0.3943425 0.3943425
0.3946969 0.3946969 0.3946969
0.3950509 0.3950509 0.3950509
0.3954045 0.3954045 0.3954045
0.3957577 0.3957577 0.3957577
0.3961106 0.3961106 0.3961106
0.3964630 0.3964630 0.3964630
0.3968151 0.3968151 0.3968151
0.3971668 0.3971668 0.3971668
0.3975181 0.3975181 0.3975181
0.3978690 0.3978690 0.3978690
0.3982196 0.3982196 0.3982196
0.3985697 0.3985697 0.3985697
0.3989195 0.3989195 0.3989195
0.3992689 0.3992689 0.3992689
0.3996180 0.3996180 0.3996180
0.3999666 0.3999666 0.3999666
0.4003149 0.4003149 0.4003149
0.4006628 0.4006628 0.4006628
0.4010104 0.4010104 0.4010104
0.4013575 0.4013575 0.4013575
0.4017043 0.4017043 0.4017043
0.4020508 0.4020508 0.4020508
0.4023968 0.4023968 0.4023968
0.4027425 0.4027425 0.4027425
0.4030879 0.4030879 0.4030879
0.4034329 0.4034329 0.4034329
0.4037775 0.4037775 0.4037775
0.4041217 0.4041217 0.4041217
0.4044656 0.4044656 0.4044656
0.4048091 0.4048091 0.4048091
0.4051523 0.4051523 0.4051523
0.4054951 0.4054951 0.4054951
0.4058375 0.4058375 0.4058375
0.4061796 0.4061796 0.4061796
0.4065214 0.4065214 0.4065214
0.4068628 0.4068628 0.4068628
0.4072038 0.4072038 0.4072038
0.4075445 0.4075445 0.4075445
0.4078848 0.4078848 0.4078848
0.4082248 0.4082248 0.4082248
0.4085644 0.4085644 0.4085644
0.4089037 0.4089037 0.4089037
0.4092427 0.4092427 0.4092427
0.4095812 0.4095812 0.4095812
0.4099195 0.4099195 0.4099195
0.4102574 0.4102574 0.4102574
0.4105950 0.4105950 0.4105950
0.4109322 0.4109322 0.4109322
0.4112690 0.4112690 0.4112690
0.4116056 0.4116056 0.4116056
0.4119418 0.4119418 0.4119418
0.4122776 0.4122776 0.4122776
0.4126132 0.4126132 0.4126132
0.4129483 0.4129483 0.4129483
0.4132832 0.4132832 0.4132832
0.4136177 0.4136177 0.4136177
0.4139519 0.4139519 0.4139519
0.4142857 0.4142857 0.4142857
0.4146192 0.4146192 0.4146192
0.4149524 0.4149524 0.4149524
0.4152853 0.4152853 0.4152853
0.4156178 0.4156178 0.4156178
0.4159500 0.4159500 0.4159500
0.4162818 0.4162818 0.4162818
0.4166134 0.4166134 0.4166134
0.4169446 0.4169446 0.4169446
0.4172755 0.4172755 0.4172755
0.4176060 0.4176060 0.4176060
0.4179363 0.4179363 0.4179363
0.4182662 0.4182662 0.4182662
0.4185958 0.4185958 0.4185958
0.4189251 0.4189251 0.4189251
0.4192540 0.4192540 0.4192540
0.4195827 0.4195827 0.4195827
0.4199110 0.4199110 0.4199110
0.4202390 0.4202390 0.4202390
0.4205667 0.4205667 0.4205667
0.4208940 0.4208940 0.4208940
0.4212211 0.4212211 0.4212211
0.4215478 0.4215478 0.4215478
0.4218742 0.4218742 0.4218742
0.4222004 0.4222004 0.4222004
0.4225262 0.4225262 0.4225262
0.4228517 0.4228517 0.4228517
0.4231768 0.4231768 0.4231768
0.4235017 0.4235017 0.4235017
0.4238263 0.4238263 0.4238263
0.4241505 0.4241505 0.4241505
0.4244745 0.4244745 0.4244745
0.4247981 0.4247981 0.4247981
0.4251214 0.4251214 0.4251214
0.4254445 0.4254445 0.4254445
0.4257672 0.4257672 0.4257672
0.4260896 0.4260896 0.4260896
0.4264117 0.4264117 0.4264117
0.4267336 0.4267336 0.4267336
0.4270551 0.4270551 0.4270551
0.4273763 0.4273763 0.4273763
0.4276972 0.4276972 0.4276972
0.4280179 0.4280179 0.4280179
0.4283382 0.4283382 0.4283382
0.4286582 0.4286582 0.4286582
0.4289779 0.4289779 0.4289779
0.4292974 0.4292974 0.4292974
0.4296165 0.4296165 0.4296165
0.4299354 0.4299354 0.4299354
0.4302539 0.4302539 0.4302539
0.4305722 0.4305722 0.4305722
0.4308902 0.4308902 0.4308902
0.4312078 0.4312078 0.4312078
0.4315252 0.4315252 0.4315252
0.4318423 0.4318423 0.4318423
0.4321591 0.4321591 0.4321591
0.4324757 0.4324757 0.4324757
0.4327919 0.4327919 0.4327919
0.4331078 0.4331078 0.4331078
0.4334235 0.4334235 0.4334235
0.4337389 0.4337389 0.4337389
0.4340540 0.4340540 0.4340540
0.4343688 0.4343688 0.4343688
0.4346833 0.4346833 0.4346833
0.4349975 0.4349975 0.4349975
0.4353115 0.4353115 0.4353115
0.4356252 0.4356252 0.4356252
0.4359386 0.4359386 0.4359386
0.4362517 0.4362517 0.4362517
0.4365645 0.4365645 0.4365645
0.4368771 0.4368771 0.4368771
0.4371894 0.4371894 0.4371894
0.4375014 0.4375014 0.4375014
0.4378131 0.4378131 0.4378131
0.4381246 0.4381246 0.4381246
0.4384357 0.4384357 0.4384357
0.4387466 0.4387466 0.4387466
0.4390573 0.4390573 0.4390573
0.4393676 0.4393676 0.4393676
0.4396777 0.4396777 0.4396777
0.4399875 0.4399875 0.4399875
0.4402971 0.4402971 0.4402971
0.4406063 0.4406063 0.4406063
0.4409153 0.4409153 0.4409153
0.4412241 0.4412241 0.4412241
0.4415325 0.4415325 0.4415325
0.4418407 0.4418407 0.4418407
0.4421487 0.4421487 0.4421487
0.4424563 0.4424563 0.4424563
0.4427637 0.4427637 0.4427637
0.4430708 0.4430708 0.4430708
0.4433777 0.4433777 0.4433777
0.4436843 0.4436843 0.4436843
0.4439906 0.4439906 0.4439906
0.4442967 0.4442967 0.4442967
0.4446025 0.4446025 0.4446025
0.4449081 0.4449081 0.4449081
0.4452134 0.4452134 0.4452134
0.4455184 0.4455184 0.4455184
0.4458232 0.4458232 0.4458232
0.4461277 0.4461277 0.4461277
0.4464319 0.4464319 0.4464319
0.4467359 0.4467359 0.4467359
0.4470396 0.4470396 0.4470396
0.4473431 0.4473431 0.4473431
0.4476463 0.4476463 0.4476463
0.4479493 0.4479493 0.4479493
0.4482520 0.4482520 0.4482520
0.4485545 0.4485545 0.4485545
0.4488567 0.4488567 0.4488567
0.4491586 0.4491586 0.4491586
0.4494603 0.4494603 0.4494603
0.4497617 0.4497617 0.4497617
0.4500629 0.4500629 0.4500629
0.4503639 0.4503639 0.4503639
0.4506645 0.4506645 0.4506645
0.4509650 0.4509650 0.4509650
0.4512652 0.4512652 0.4512652
0.4515651 0.4515651 0.4515651
0.4518648 0.4518648 0.4518648
0.4521642 0.4521642 0.4521642
0.4524634 0.4524634 0.4524634
0.4527624 0.4527624 0.4527624
0.4530611 0.4530611 0.4530611
0.4533595 0.4533595 0.4533595
0.4536577 0.4536577 0.4536577
0.4539557 0.4539557 0.4539557
0.4542534 0.4542534 0.4542534
0.4545509 0.4545509 0.4545509
0.4548482 0.4548482 0.4548482
0.4551451 0.4551451 0.4551451
0.4554419 0.4554419 0.4554419
0.4557384 0.4557384 0.4557384
0.4560347 0.4560347 0.4560347
0.4563307 0.4563307 0.4563307
0.4566265 0.4566265 0.4566265
0.4569220 0.4569220 0.4569220
0.4572174 0.4572174 0.4572174
0.4575124 0.4575124 0.4575124
0.4578073 0.4578073 0.4578073
0.4581019 0.4581019 0.4581019
0.4583962 0.4583962 0.4583962
0.4586903 0.4586903 0.4586903
0.4589842 0.4589842 0.4589842
0.4592779 0.4592779 0.4592779
0.4595713 0.4595713 0.4595713
0.4598645 0.4598645 0.4598645
0.4601575 0.4601575 0.4601575
0.4604502 0.4604502 0.4604502
0.4607427 0.4607427 0.4607427
0.4610349 0.4610349 0.4610349
0.4613269 0.4613269 0.4613269
0.4616187 0.4616187 0.4616187
0.4619103 0.4619103 0.4619103
0.4622016 0.4622016 0.4622016
0.4624927 0.4624927 0.4624927
0.4627836 0.4627836 0.4627836
0.4630742 0.4630742 0.4630742
0.4633647 0.4633647 0.4633647
0.4636549 0.4636549 0.4636549
0.4639448 0.4639448 0.4639448
0.4642346 0.4642346 0.4642346
0.4645241 0.4645241 0.4645241
0.4648133 0.4648133 0.4648133
0.4651024 0.4651024 0.4651024
0.4653912 0.4653912 0.4653912
0.4656798 0.4656798 0.4656798
0.4659682 0.4659682 0.4659682
0.4662564 0.4662564 0.4662564
0.4665443 0.4665443 0.4665443
0.4668320 0.4668320 0.4668320
0.4671195 0.4671195 0.4671195
0.4674068 0.4674068 0.4674068
0.4676939 0.4676939 0.4676939
0.4679807 0.4679807 0.4679807
0.4682673 0.4682673 0.4682673
0.4685537 0.4685537 0.4685537
0.4688399 0.4688399 0.4688399
0.4691258 0.4691258 0.4691258
0.4694116 0.4694116 0.4694116
0.4696971 0.4696971 0.4696971
0.4699824 0.4699824 0.4699824
0.4702675 0.4702675 0.4702675
0.4705523 0.4705523 0.4705523
0.4708370 0.4708370 0.4708370
0.4711214 0.4711214 0.4711214
