srgb-to-linear.cube
TITLE "sRGB Transfer to Linear"
LUT_1D_SIZE 4096
0.0000000 0.0000000 0.0000000
0.0000189 0.0000189 0.0000189
0.0000378 0.0000378 0.0000378
0.0000567 0.0000567 0.0000567
0.0000756 0.0000756 0.0000756
0.0000945 0.0000945 0.0000945
0.0001134 0.0001134 0.0001134
0.0001323 0.0001323 0.0001323
0.0001512 0.0001512 0.0001512
0.0001701 0.0001701 0.0001701
0.0001890 0.0001890 0.0001890
0.0002079 0.0002079 0.0002079
0.0002268 0.0002268 0.0002268
0.0002457 0.0002457 0.0002457
0.0002646 0.0002646 0.0002646
0.0002835 0.0002835 0.0002835
0.0003024 0.0003024 0.0003024
0.0003213 0.0003213 0.0003213
0.0003402 0.0003402 0.0003402
0.0003591 0.0003591 0.0003591
0.0003780 0.0003780 0.0003780
0.0003969 0.0003969 0.0003969
0.0004158 0.0004158 0.0004158
0.0004347 0.0004347 0.0004347
0.0004536 0.0004536 0.0004536
0.0004725 0.0004725 0.0004725
0.0004914 0.0004914 0.0004914
0.0005103 0.0005103 0.0005103
0.0005292 0.0005292 0.0005292
0.0005481 0.0005481 0.0005481
0.0005670 0.0005670 0.0005670
0.0005859 0.0005859 0.0005859
0.0006048 0.0006048 0.0006048
0.0006237 0.0006237 0.0006237
0.0006426 0.0006426 0.0006426
0.0006615 0.0006615 0.0006615
0.0006804 0.0006804 0.0006804
0.0006993 0.0006993 0.0006993
0.0007182 0.0007182 0.0007182
0.0007371 0.0007371 0.0007371
0.0007560 0.0007560 0.0007560
0.0007749 0.0007749 0.0007749
0.0007938 0.0007938 0.0007938
0.0008127 0.0008127 0.0008127
0.0008316 0.0008316 0.0008316
0.0008505 0.0008505 0.0008505
0.0008694 0.0008694 0.0008694
0.0008883 0.0008883 0.0008883
0.0009072 0.0009072 0.0009072
0.0009261 0.0009261 0.0009261
0.0009450 0.0009450 0.0009450
0.0009639 0.0009639 0.0009639
0.0009828 0.0009828 0.0009828
0.0010018 0.0010018 0.0010018
0.0010207 0.0010207 0.0010207
0.0010396 0.0010396 0.0010396
0.0010585 0.0010585 0.0010585
0.0010774 0.0010774 0.0010774
0.0010963 0.0010963 0.0010963
0.0011152 0.0011152 0.0011152
0.0011341 0.0011341 0.0011341
0.0011530 0.0011530 0.0011530
0.0011719 0.0011719 0.0011719
0.0011908 0.0011908 0.0011908
0.0012097 0.0012097 0.0012097
0.0012286 0.0012286 0.0012286
0.0012475 0.0012475 0.0012475
0.0012664 0.0012664 0.0012664
0.0012853 0.0012853 0.0012853
0.0013042 0.0013042 0.0013042
0.0013231 0.0013231 0.0013231
0.0013420 0.0013420 0.0013420
0.0013609 0.0013609 0.0013609
0.0013798 0.0013798 0.0013798
0.0013987 0.0013987 0.0013987
0.0014176 0.0014176 0.0014176
0.0014365 0.0014365 0.0014365
0.0014554 0.0014554 0.0014554
0.0014743 0.0014743 0.0014743
0.0014932 0.0014932 0.0014932
0.0015121 0.0015121 0.0015121
0.0015310 0.0015310 0.0015310
0.0015499 0.0015499 0.0015499
0.0015688 0.0015688 0.0015688
0.0015877 0.0015877 0.0015877
0.0016066 0.0016066 0.0016066
0.0016255 0.0016255 0.0016255
0.0016444 0.0016444 0.0016444
0.0016633 0.0016633 0.0016633
0.0016822 0.0016822 0.0016822
0.0017011 0.0017011 0.0017011
0.0017200 0.0017200 0.0017200
0.0017389 0.0017389 0.0017389
0.0017578 0.0017578 0.0017578
0.0017767 0.0017767 0.0017767
0.0017956 0.0017956 0.0017956
0.0018145 0.0018145 0.0018145
0.0018334 0.0018334 0.0018334
0.0018523 0.0018523 0.0018523
0.0018712 0.0018712 0.0018712
0.0018901 0.0018901 0.0018901
0.0019090 0.0019090 0.0019090
0.0019279 0.0019279 0.0019279
0.0019468 0.0019468 0.0019468
0.0019657 0.0019657 0.0019657
0.0019846 0.0019846 0.0019846
0.0020035 0.0020035 0.0020035
0.0020224 0.0020224 0.0020224
0.0020413 0.0020413 0.0020413
0.0020602 0.0020602 0.0020602
0.0020791 0.0020791 0.0020791
0.0020980 0.0020980 0.0020980
0.0021169 0.0021169 0.0021169
0.0021358 0.0021358 0.0021358
0.0021547 0.0021547 0.0021547
0.0021736 0.0021736 0.0021736
0.0021925 0.0021925 0.0021925
0.0022114 0.0022114 0.0022114
0.0022303 0.0022303 0.0022303
0.0022492 0.0022492 0.0022492
0.0022681 0.0022681 0.0022681
0.0022870 0.0022870 0.0022870
0.0023059 0.0023059 0.0023059
0.0023248 0.0023248 0.0023248
0.0023437 0.0023437 0.0023437
0.0023626 0.0023626 0.0023626
0.0023815 0.0023815 0.0023815
0.0024004 0.0024004 0.0024004
0.0024193 0.0024193 0.0024193
0.0024382 0.0024382 0.0024382
0.0024571 0.0024571 0.0024571
0.0024760 0.0024760 0.0024760
0.0024949 0.0024949 0.0024949
0.0025138 0.0025138 0.0025138
0.0025327 0.0025327 0.0025327
0.0025516 0.0025516 0.0025516
0.0025705 0.0025705 0.0025705
0.0025894 0.0025894 0.0025894
0.0026083 0.0026083 0.0026083
0.0026272 0.0026272 0.0026272
0.0026461 0.0026461 0.0026461
0.0026650 0.0026650 0.0026650
0.0026839 0.0026839 0.0026839
0.0027028 0.0027028 0.0027028
0.0027217 0.0027217 0.0027217
0.0027406 0.0027406 0.0027406
0.0027595 0.0027595 0.0027595
0.0027784 0.0027784 0.0027784
0.0027973 0.0027973 0.0027973
0.0028162 0.0028162 0.0028162
0.0028351 0.0028351 0.0028351
0.0028540 0.0028540 0.0028540
0.0028729 0.0028729 0.0028729
0.0028918 0.0028918 0.0028918
0.0029107 0.0029107 0.0029107
0.0029296 0.0029296 0.0029296
0.0029485 0.0029485 0.0029485
0.0029674 0.0029674 0.0029674
0.0029863 0.0029863 0.0029863
0.0030053 0.0030053 0.0030053
0.0030242 0.0030242 0.0030242
0.0030431 0.0030431 0.0030431
0.0030620 0.0030620 0.0030620
0.0030809 0.0030809 0.0030809
0.0030998 0.0030998 0.0030998
0.0031187 0.0031187 0.0031187
0.0031377 0.0031377 0.0031377
0.0031570 0.0031570 0.0031570
0.0031763 0.0031763 0.0031763
0.0031957 0.0031957 0.0031957
0.0032152 0.0032152 0.0032152
0.0032348 0.0032348 0.0032348
0.0032544 0.0032544 0.0032544
0.0032741 0.0032741 0.0032741
0.0032939 0.0032939 0.0032939
0.0033137 0.0033137 0.0033137
0.0033336 0.0033336 0.0033336
0.0033536 0.0033536 0.0033536
0.0033736 0.0033736 0.0033736
0.0033938 0.0033938 0.0033938
0.0034139 0.0034139 0.0034139
0.0034342 0.0034342 0.0034342
0.0034545 0.0034545 0.0034545
0.0034749 0.0034749 0.0034749
0.0034954 0.0034954 0.0034954
0.0035159 0.0035159 0.0035159
0.0035365 0.0035365 0.0035365
0.0035572 0.0035572 0.0035572
0.0035779 0.0035779 0.0035779
0.0035988 0.0035988 0.0035988
0.0036196 0.0036196 0.0036196
0.0036406 0.0036406 0.0036406
0.0036616 0.0036616 0.0036616
0.0036827 0.0036827 0.0036827
0.0037039 0.0037039 0.0037039
0.0037251 0.0037251 0.0037251
0.0037464 0.0037464 0.0037464
0.0037678 0.0037678 0.0037678
0.0037893 0.0037893 0.0037893
0.0038108 0.0038108 0.0038108
0.0038324 0.0038324 0.0038324
0.0038541 0.0038541 0.0038541
0.0038758 0.0038758 0.0038758
0.0038976 0.0038976 0.0038976
0.0039195 0.0039195 0.0039195
0.0039414 0.0039414 0.0039414
0.0039635 0.0039635 0.0039635
0.0039856 0.0039856 0.0039856
0.0040077 0.0040077 0.0040077
0.0040300 0.0040300 0.0040300
0.0040523 0.0040523 0.0040523
0.0040746 0.0040746 0.0040746
0.0040971 0.0040971 0.0040971
0.0041196 0.0041196 0.0041196
0.0041422 0.0041422 0.0041422
0.0041649 0.0041649 0.0041649
0.0041876 0.0041876 0.0041876
0.0042105 0.0042105 0.0042105
0.0042333 0.0042333 0.0042333
0.0042563 0.0042563 0.0042563
0.0042793 0.0042793 0.0042793
0.0043024 0.0043024 0.0043024
0.0043256 0.0043256 0.0043256
0.0043489 0.0043489 0.0043489
0.0043722 0.0043722 0.0043722
0.0043956 0.0043956 0.0043956
0.0044190 0.0044190 0.0044190
0.0044426 0.0044426 0.0044426
0.0044662 0.0044662 0.0044662
0.0044899 0.0044899 0.0044899
0.0045136 0.0045136 0.0045136
0.0045375 0.0045375 0.0045375
0.0045614 0.0045614 0.0045614
0.0045854 0.0045854 0.0045854
0.0046094 0.0046094 0.0046094
0.0046335 0.0046335 0.0046335
0.0046577 0.0046577 0.0046577
0.0046820 0.0046820 0.0046820
0.0047064 0.0047064 0.0047064
0.0047308 0.0047308 0.0047308
0.0047553 0.0047553 0.0047553
0.0047798 0.0047798 0.0047798
0.0048045 0.0048045 0.0048045
0.0048292 0.0048292 0.0048292
0.0048540 0.0048540 0.0048540
0.0048789 0.0048789 0.0048789
0.0049038 0.0049038 0.0049038
0.0049288 0.0049288 0.0049288
0.0049539 0.0049539 0.0049539
0.0049791 0.0049791 0.0049791
0.0050043 0.0050043 0.0050043
0.0050296 0.0050296 0.0050296
0.0050550 0.0050550 0.0050550
0.0050805 0.0050805 0.0050805
0.0051060 0.0051060 0.0051060
0.0051316 0.0051316 0.0051316
0.0051573 0.0051573 0.0051573
0.0051830 0.0051830 0.0051830
0.0052089 0.0052089 0.0052089
0.0052348 0.0052348 0.0052348
0.0052608 0.0052608 0.0052608
0.0052868 0.0052868 0.0052868
0.0053129 0.0053129 0.0053129
0.0053392 0.0053392 0.0053392
0.0053654 0.0053654 0.0053654
0.0053918 0.0053918 0.0053918
0.0054182 0.0054182 0.0054182
0.0054447 0.0054447 0.0054447
0.0054713 0.0054713 0.0054713
0.0054980 0.0054980 0.0054980
0.0055247 0.0055247 0.0055247
0.0055515 0.0055515 0.0055515
0.0055784 0.0055784 0.0055784
0.0056054 0.0056054 0.0056054
0.0056324 0.0056324 0.0056324
0.0056595 0.0056595 0.0056595
0.0056867 0.0056867 0.0056867
0.0057140 0.0057140 0.0057140
0.0057413 0.0057413 0.0057413
0.0057688 0.0057688 0.0057688
0.0057963 0.0057963 0.0057963
0.0058238 0.0058238 0.0058238
0.0058515 0.0058515 0.0058515
0.0058792 0.0058792 0.0058792
0.0059070 0.0059070 0.0059070
0.0059349 0.0059349 0.0059349
0.0059628 0.0059628 0.0059628
0.0059909 0.0059909 0.0059909
0.0060190 0.0060190 0.0060190
0.0060472 0.0060472 0.0060472
0.0060754 0.0060754 0.0060754
0.0061038 0.0061038 0.0061038
0.0061322 0.0061322 0.0061322
0.0061607 0.0061607 0.0061607
0.0061893 0.0061893 0.0061893
0.0062179 0.0062179 0.0062179
0.0062466 0.0062466 0.0062466
0.0062754 0.0062754 0.0062754
0.0063043 0.0063043 0.0063043
0.0063333 0.0063333 0.0063333
0.0063623 0.0063623 0.0063623
0.0063914 0.0063914 0.0063914
0.0064206 0.0064206 0.0064206
0.0064499 0.0064499 0.0064499
0.0064792 0.0064792 0.0064792
0.0065086 0.0065086 0.0065086
0.0065381 0.0065381 0.0065381
0.0065677 0.0065677 0.0065677
0.0065974 0.0065974 0.0065974
0.0066271 0.0066271 0.0066271
0.0066569 0.0066569 0.0066569
0.0066868 0.0066868 0.0066868
0.0067168 0.0067168 0.0067168
0.0067468 0.0067468 0.0067468
0.0067769 0.0067769 0.0067769
0.0068071 0.0068071 0.0068071
0.0068374 0.0068374 0.0068374
0.0068678 0.0068678 0.0068678
0.0068982 0.0068982 0.0068982
0.0069287 0.0069287 0.0069287
0.0069593 0.0069593 0.0069593
0.0069900 0.0069900 0.0069900
0.0070207 0.0070207 0.0070207
0.0070516 0.0070516 0.0070516
0.0070825 0.0070825 0.0070825
0.0071135 0.0071135 0.0071135
0.0071445 0.0071445 0.0071445
0.0071757 0.0071757 0.0071757
0.0072069 0.0072069 0.0072069
0.0072382 0.0072382 0.0072382
0.0072696 0.0072696 0.0072696
0.0073011 0.0073011 0.0073011
0.0073326 0.0073326 0.0073326
0.0073642 0.0073642 0.0073642
0.0073959 0.0073959 0.0073959
0.0074277 0.0074277 0.0074277
0.0074596 0.0074596 0.0074596
0.0074915 0.0074915 0.0074915
0.0075235 0.0075235 0.0075235
0.0075556 0.0075556 0.0075556
0.0075878 0.0075878 0.0075878
0.0076201 0.0076201 0.0076201
0.0076524 0.0076524 0.0076524
0.0076848 0.0076848 0.0076848
0.0077173 0.0077173 0.0077173
0.0077499 0.0077499 0.0077499
0.0077826 0.0077826 0.0077826
0.0078153 0.0078153 0.0078153
0.0078481 0.0078481 0.0078481
0.0078810 0.0078810 0.0078810
0.0079140 0.0079140 0.0079140
0.0079470 0.0079470 0.0079470
0.0079802 0.0079802 0.0079802
0.0080134 0.0080134 0.0080134
0.0080467 0.0080467 0.0080467
0.0080801 0.0080801 0.0080801
0.0081136 0.0081136 0.0081136
0.0081471 0.0081471 0.0081471
0.0081807 0.0081807 0.0081807
0.0082144 0.0082144 0.0082144
0.0082482 0.0082482 0.0082482
0.0082821 0.0082821 0.0082821
0.0083160 0.0083160 0.0083160
0.0083500 0.0083500 0.0083500
0.0083842 0.0083842 0.0083842
0.0084183 0.0084183 0.0084183
0.0084526 0.0084526 0.0084526
0.0084870 0.0084870 0.0084870
0.0085214 0.0085214 0.0085214
0.0085559 0.0085559 0.0085559
0.0085905 0.0085905 0.0085905
0.0086252 0.0086252 0.0086252
0.0086600 0.0086600 0.0086600
0.0086948 0.0086948 0.0086948
0.0087297 0.0087297 0.0087297
0.0087647 0.0087647 0.0087647
0.0087998 0.0087998 0.0087998
0.0088350 0.0088350 0.0088350
0.0088702 0.0088702 0.0088702
0.0089056 0.0089056 0.0089056
0.0089410 0.0089410 0.0089410
0.0089765 0.0089765 0.0089765
0.0090121 0.0090121 0.0090121
0.0090477 0.0090477 0.0090477
0.0090835 0.0090835 0.0090835
0.0091193 0.0091193 0.0091193
0.0091552 0.0091552 0.0091552
0.0091912 0.0091912 0.0091912
0.0092273 0.0092273 0.0092273
0.0092634 0.0092634 0.0092634
0.0092996 0.0092996 0.0092996
0.0093360 0.0093360 0.0093360
0.0093724 0.0093724 0.0093724
0.0094088 0.0094088 0.0094088
0.0094454 0.0094454 0.0094454
0.0094821 0.0094821 0.0094821
0.0095188 0.0095188 0.0095188
0.0095556 0.0095556 0.0095556
0.0095925 0.0095925 0.0095925
0.0096295 0.0096295 0.0096295
0.0096666 0.0096666 0.0096666
0.0097037 0.0097037 0.0097037
0.0097409 0.0097409 0.0097409
0.0097783 0.0097783 0.0097783
0.0098156 0.0098156 0.0098156
0.0098531 0.0098531 0.0098531
0.0098907 0.0098907 0.0098907
0.0099283 0.0099283 0.0099283
0.0099661 0.0099661 0.0099661
0.0100039 0.0100039 0.0100039
0.0100418 0.0100418 0.0100418
0.0100798 0.0100798 0.0100798
0.0101178 0.0101178 0.0101178
0.0101560 0.0101560 0.0101560
0.0101942 0.0101942 0.0101942
0.0102325 0.0102325 0.0102325
0.0102709 0.0102709 0.0102709
0.0103094 0.0103094 0.0103094
0.0103480 0.0103480 0.0103480
0.0103866 0.0103866 0.0103866
0.0104254 0.0104254 0.0104254
0.0104642 0.0104642 0.0104642
0.0105031 0.0105031 0.0105031
0.0105421 0.0105421 0.0105421
0.0105812 0.0105812 0.0105812
0.0106203 0.0106203 0.0106203
0.0106596 0.0106596 0.0106596
0.0106989 0.0106989 0.0106989
0.0107383 0.0107383 0.0107383
0.0107778 0.0107778 0.0107778
0.0108174 0.0108174 0.0108174
0.0108570 0.0108570 0.0108570
0.0108968 0.0108968 0.0108968
0.0109366 0.0109366 0.0109366
0.0109765 0.0109765 0.0109765
0.0110165 0.0110165 0.0110165
0.0110566 0.0110566 0.0110566
0.0110968 0.0110968 0.0110968
0.0111371 0.0111371 0.0111371
0.0111774 0.0111774 0.0111774
0.0112178 0.0112178 0.0112178
0.0112584 0.0112584 0.0112584
0.0112990 0.0112990 0.0112990
0.0113396 0.0113396 0.0113396
0.0113804 0.0113804 0.0113804
0.0114213 0.0114213 0.0114213
0.0114622 0.0114622 0.0114622
0.0115032 0.0115032 0.0115032
0.0115443 0.0115443 0.0115443
0.0115855 0.0115855 0.0115855
0.0116268 0.0116268 0.0116268
0.0116682 0.0116682 0.0116682
0.0117096 0.0117096 0.0117096
0.0117512 0.0117512 0.0117512
0.0117928 0.0117928 0.0117928
0.0118345 0.0118345 0.0118345
0.0118763 0.0118763 0.0118763
0.0119182 0.0119182 0.0119182
0.0119602 0.0119602 0.0119602
0.0120022 0.0120022 0.0120022
0.0120444 0.0120444 0.0120444
0.0120866 0.0120866 0.0120866
0.0121289 0.0121289 0.0121289
0.0121713 0.0121713 0.0121713
0.0122138 0.0122138 0.0122138
0.0122564 0.0122564 0.0122564
0.0122990 0.0122990 0.0122990
0.0123418 0.0123418 0.0123418
0.0123846 0.0123846 0.0123846
0.0124275 0.0124275 0.0124275
0.0124706 0.0124706 0.0124706
0.0125136 0.0125136 0.0125136
0.0125568 0.0125568 0.0125568
0.0126001 0.0126001 0.0126001
0.0126434 0.0126434 0.0126434
0.0126869 0.0126869 0.0126869
0.0127304 0.0127304 0.0127304
0.0127740 0.0127740 0.0127740
0.0128177 0.0128177 0.0128177
0.0128615 0.0128615 0.0128615
0.0129054 0.0129054 0.0129054
0.0129494 0.0129494 0.0129494
0.0129934 0.0129934 0.0129934
0.0130375 0.0130375 0.0130375
0.0130818 0.0130818 0.0130818
0.0131261 0.0131261 0.0131261
0.0131705 0.0131705 0.0131705
0.0132150 0.0132150 0.0132150
0.0132595 0.0132595 0.0132595
0.0133042 0.0133042 0.0133042
0.0133490 0.0133490 0.0133490
0.0133938 0.0133938 0.0133938
0.0134387 0.0134387 0.0134387
0.0134837 0.0134837 0.0134837
0.0135288 0.0135288 0.0135288
0.0135740 0.0135740 0.0135740
0.0136193 0.0136193 0.0136193
0.0136647 0.0136647 0.0136647
0.0137101 0.0137101 0.0137101
0.0137557 0.0137557 0.0137557
0.0138013 0.0138013 0.0138013
0.0138470 0.0138470 0.0138470
0.0138928 0.0138928 0.0138928
0.0139387 0.0139387 0.0139387
0.0139847 0.0139847 0.0139847
0.0140307 0.0140307 0.0140307
0.0140769 0.0140769 0.0140769
0.0141232 0.0141232 0.0141232
0.0141695 0.0141695 0.0141695
0.0142159 0.0142159 0.0142159
0.0142624 0.0142624 0.0142624
0.0143090 0.0143090 0.0143090
0.0143557 0.0143557 0.0143557
0.0144025 0.0144025 0.0144025
0.0144494 0.0144494 0.0144494
0.0144963 0.0144963 0.0144963
0.0145434 0.0145434 0.0145434
0.0145905 0.0145905 0.0145905
0.0146377 0.0146377 0.0146377
0.0146850 0.0146850 0.0146850
0.0147324 0.0147324 0.0147324
0.0147799 0.0147799 0.0147799
0.0148275 0.0148275 0.0148275
0.0148752 0.0148752 0.0148752
0.0149229 0.0149229 0.0149229
0.0149708 0.0149708 0.0149708
0.0150187 0.0150187 0.0150187
0.0150667 0.0150667 0.0150667
0.0151149 0.0151149 0.0151149
0.0151631 0.0151631 0.0151631
0.0152114 0.0152114 0.0152114
0.0152597 0.0152597 0.0152597
0.0153082 0.0153082 0.0153082
0.0153568 0.0153568 0.0153568
0.0154054 0.0154054 0.0154054
0.0154542 0.0154542 0.0154542
0.0155030 0.0155030 0.0155030
0.0155519 0.0155519 0.0155519
0.0156009 0.0156009 0.0156009
0.0156500 0.0156500 0.0156500
0.0156992 0.0156992 0.0156992
0.0157485 0.0157485 0.0157485
0.0157979 0.0157979 0.0157979
0.0158474 0.0158474 0.0158474
0.0158969 0.0158969 0.0158969
0.0159466 0.0159466 0.0159466
0.0159963 0.0159963 0.0159963
0.0160461 0.0160461 0.0160461
0.0160960 0.0160960 0.0160960
0.0161460 0.0161460 0.0161460
0.0161961 0.0161961 0.0161961
0.0162463 0.0162463 0.0162463
0.0162966 0.0162966 0.0162966
0.0163470 0.0163470 0.0163470
0.0163974 0.0163974 0.0163974
0.0164480 0.0164480 0.0164480
0.0164986 0.0164986 0.0164986
0.0165493 0.0165493 0.0165493
0.0166002 0.0166002 0.0166002
0.0166511 0.0166511 0.0166511
0.0167021 0.0167021 0.0167021
0.0167532 0.0167532 0.0167532
0.0168044 0.0168044 0.0168044
0.0168556 0.0168556 0.0168556
0.0169070 0.0169070 0.0169070
0.0169585 0.0169585 0.0169585
0.0170100 0.0170100 0.0170100
0.0170617 0.0170617 0.0170617
0.0171134 0.0171134 0.0171134
0.0171652 0.0171652 0.0171652
0.0172171 0.0172171 0.0172171
0.0172691 0.0172691 0.0172691
0.0173212 0.0173212 0.0173212
0.0173734 0.0173734 0.0173734
0.0174257 0.0174257 0.0174257
0.0174781 0.0174781 0.0174781
0.0175305 0.0175305 0.0175305
0.0175831 0.0175831 0.0175831
0.0176358 0.0176358 0.0176358
0.0176885 0.0176885 0.0176885
0.0177413 0.0177413 0.0177413
0.0177943 0.0177943 0.0177943
0.0178473 0.0178473 0.0178473
0.0179004 0.0179004 0.0179004
0.0179536 0.0179536 0.0179536
0.0180069 0.0180069 0.0180069
0.0180603 0.0180603 0.0180603
0.0181137 0.0181137 0.0181137
0.0181673 0.0181673 0.0181673
0.0182210 0.0182210 0.0182210
0.0182747 0.0182747 0.0182747
0.0183286 0.0183286 0.0183286
0.0183825 0.0183825 0.0183825
0.0184365 0.0184365 0.0184365
0.0184907 0.0184907 0.0184907
0.0185449 0.0185449 0.0185449
0.0185992 0.0185992 0.0185992
0.0186536 0.0186536 0.0186536
0.0187081 0.0187081 0.0187081
0.0187627 0.0187627 0.0187627
0.0188173 0.0188173 0.0188173
0.0188721 0.0188721 0.0188721
0.0189270 0.0189270 0.0189270
0.0189819 0.0189819 0.0189819
0.0190370 0.0190370 0.0190370
0.0190921 0.0190921 0.0190921
0.0191474 0.0191474 0.0191474
0.0192027 0.0192027 0.0192027
0.0192581 0.0192581 0.0192581
0.0193137 0.0193137 0.0193137
0.0193693 0.0193693 0.0193693
0.0194250 0.0194250 0.0194250
0.0194808 0.0194808 0.0194808
0.0195367 0.0195367 0.0195367
0.0195926 0.0195926 0.0195926
0.0196487 0.0196487 0.0196487
0.0197049 0.0197049 0.0197049
0.0197612 0.0197612 0.0197612
0.0198175 0.0198175 0.0198175
0.0198740 0.0198740 0.0198740
0.0199305 0.0199305 0.0199305
0.0199871 0.0199871 0.0199871
0.0200439 0.0200439 0.0200439
0.0201007 0.0201007 0.0201007
0.0201576 0.0201576 0.0201576
0.0202146 0.0202146 0.0202146
0.0202717 0.0202717 0.0202717
0.0203290 0.0203290 0.0203290
0.0203862 0.0203862 0.0203862
0.0204436 0.0204436 0.0204436
0.0205011 0.0205011 0.0205011
0.0205587 0.0205587 0.0205587
0.0206164 0.0206164 0.0206164
0.0206741 0.0206741 0.0206741
0.0207320 0.0207320 0.0207320
0.0207900 0.0207900 0.0207900
0.0208480 0.0208480 0.0208480
0.0209062 0.0209062 0.0209062
0.0209644 0.0209644 0.0209644
0.0210227 0.0210227 0.0210227
0.0210812 0.0210812 0.0210812
0.0211397 0.0211397 0.0211397
0.0211983 0.0211983 0.0211983
0.0212570 0.0212570 0.0212570
0.0213158 0.0213158 0.0213158
0.0213747 0.0213747 0.0213747
0.0214337 0.0214337 0.0214337
0.0214928 0.0214928 0.0214928
0.0215520 0.0215520 0.0215520
0.0216113 0.0216113 0.0216113
0.0216707 0.0216707 0.0216707
0.0217301 0.0217301 0.0217301
0.0217897 0.0217897 0.0217897
0.0218494 0.0218494 0.0218494
0.0219091 0.0219091 0.0219091
0.0219690 0.0219690 0.0219690
0.0220289 0.0220289 0.0220289
0.0220890 0.0220890 0.0220890
0.0221491 0.0221491 0.0221491
0.0222093 0.0222093 0.0222093
0.0222697 0.0222697 0.0222697
0.0223301 0.0223301 0.0223301
0.0223906 0.0223906 0.0223906
0.0224512 0.0224512 0.0224512
0.0225119 0.0225119 0.0225119
0.0225727 0.0225727 0.0225727
0.0226336 0.0226336 0.0226336
0.0226946 0.0226946 0.0226946
0.0227557 0.0227557 0.0227557
0.0228169 0.0228169 0.0228169
0.0228782 0.0228782 0.0228782
0.0229396 0.0229396 0.0229396
0.0230011 0.0230011 0.0230011
0.0230626 0.0230626 0.0230626
0.0231243 0.0231243 0.0231243
0.0231861 0.0231861 0.0231861
0.0232479 0.0232479 0.0232479
0.0233099 0.0233099 0.0233099
0.0233720 0.0233720 0.0233720
0.0234341 0.0234341 0.0234341
0.0234964 0.0234964 0.0234964
0.0235587 0.0235587 0.0235587
0.0236211 0.0236211 0.0236211
0.0236837 0.0236837 0.0236837
0.0237463 0.0237463 0.0237463
0.0238090 0.0238090 0.0238090
0.0238719 0.0238719 0.0238719
0.0239348 0.0239348 0.0239348
0.0239978 0.0239978 0.0239978
0.0240609 0.0240609 0.0240609
0.0241241 0.0241241 0.0241241
0.0241874 0.0241874 0.0241874
0.0242508 0.0242508 0.0242508
0.0243143 0.0243143 0.0243143
0.0243779 0.0243779 0.0243779
0.0244416 0.0244416 0.0244416
0.0245054 0.0245054 0.0245054
0.0245693 0.0245693 0.0245693
0.0246333 0.0246333 0.0246333
0.0246974 0.0246974 0.0246974
0.0247616 0.0247616 0.0247616
0.0248259 0.0248259 0.0248259
0.0248902 0.0248902 0.0248902
0.0249547 0.0249547 0.0249547
0.0250193 0.0250193 0.0250193
0.0250840 0.0250840 0.0250840
0.0251487 0.0251487 0.0251487
0.0252136 0.0252136 0.0252136
0.0252785 0.0252785 0.0252785
0.0253436 0.0253436 0.0253436
0.0254088 0.0254088 0.0254088
0.0254740 0.0254740 0.0254740
0.0255394 0.0255394 0.0255394
0.0256048 0.0256048 0.0256048
0.0256704 0.0256704 0.0256704
0.0257360 0.0257360 0.0257360
0.0258017 0.0258017 0.0258017
0.0258676 0.0258676 0.0258676
0.0259335 0.0259335 0.0259335
0.0259996 0.0259996 0.0259996
0.0260657 0.0260657 0.0260657
0.0261319 0.0261319 0.0261319
0.0261983 0.0261983 0.0261983
0.0262647 0.0262647 0.0262647
0.0263312 0.0263312 0.0263312
0.0263978 0.0263978 0.0263978
0.0264646 0.0264646 0.0264646
0.0265314 0.0265314 0.0265314
0.0265983 0.0265983 0.0265983
0.0266653 0.0266653 0.0266653
0.0267324 0.0267324 0.0267324
0.0267996 0.0267996 0.0267996
0.0268670 0.0268670 0.0268670
0.0269344 0.0269344 0.0269344
0.0270019 0.0270019 0.0270019
0.0270695 0.0270695 0.0270695
0.0271372 0.0271372 0.0271372
0.0272050 0.0272050 0.0272050
0.0272729 0.0272729 0.0272729
0.0273409 0.0273409 0.0273409
0.0274090 0.0274090 0.0274090
0.0274772 0.0274772 0.0274772
0.0275455 0.0275455 0.0275455
0.0276139 0.0276139 0.0276139
0.0276824 0.0276824 0.0276824
0.0277510 0.0277510 0.0277510
0.0278197 0.0278197 0.0278197
0.0278885 0.0278885 0.0278885
0.0279574 0.0279574 0.0279574
0.0280264 0.0280264 0.0280264
0.0280955 0.0280955 0.0280955
0.0281647 0.0281647 0.0281647
0.0282340 0.0282340 0.0282340
0.0283033 0.0283033 0.0283033
0.0283728 0.0283728 0.0283728
0.0284424 0.0284424 0.0284424
0.0285121 0.0285121 0.0285121
0.0285819 0.0285819 0.0285819
0.0286518 0.0286518 0.0286518
0.0287218 0.0287218 0.0287218
0.0287919 0.0287919 0.0287919
0.0288620 0.0288620 0.0288620
0.0289323 0.0289323 0.0289323
0.0290027 0.0290027 0.0290027
0.0290732 0.0290732 0.0290732
0.0291438 0.0291438 0.0291438
0.0292145 0.0292145 0.0292145
0.0292853 0.0292853 0.0292853
0.0293561 0.0293561 0.0293561
0.0294271 0.0294271 0.0294271
0.0294982 0.0294982 0.0294982
0.0295694 0.0295694 0.0295694
